optimized/24/outline/contact-us.svg

<svg viewBox="0 0 24 24" xmlns="http://www.w3.org/2000/svg" fill="currentColor" data-slot="icon">
  <path d="M7.25 13C7.25 12.6685 7.11821 12.3506 6.88379 12.1162C6.64937 11.8818 6.33152 11.75 6 11.75H3.75V16C3.75 16.3315 3.88179 16.6494 4.11621 16.8838C4.35063 17.1182 4.66848 17.25 5 17.25H6C6.33152 17.25 6.64937 17.1182 6.88379 16.8838C7.0888 16.6788 7.21564 16.41 7.24414 16.124L7.25 16V13ZM8.75 16C8.75 16.7293 8.46006 17.4286 7.94434 17.9443C7.42861 18.4601 6.72935 18.75 6 18.75H5C4.27065 18.75 3.57139 18.4601 3.05566 17.9443C2.53994 17.4286 2.25 16.7293 2.25 16V11C2.25 9.71961 2.5022 8.45148 2.99219 7.26855C3.48217 6.08573 4.20016 5.01078 5.10547 4.10547C6.01078 3.20016 7.08573 2.48217 8.26855 1.99219C9.45148 1.5022 10.7196 1.25 12 1.25C13.2804 1.25 14.5485 1.5022 15.7314 1.99219C16.9143 2.48217 17.9892 3.20016 18.8945 4.10547C19.7998 5.01078 20.5178 6.08573 21.0078 7.26855C21.4978 8.45148 21.75 9.71961 21.75 11V18C21.75 19.2598 21.2492 20.4676 20.3584 21.3584C19.4676 22.2492 18.2598 22.75 17 22.75H12C11.5858 22.75 11.25 22.4142 11.25 22C11.25 21.5858 11.5858 21.25 12 21.25H17C17.862 21.25 18.6884 20.9073 19.2979 20.2979C19.7972 19.7985 20.1174 19.1537 20.2168 18.4629C19.8415 18.6483 19.4265 18.75 19 18.75H18C17.2707 18.75 16.5714 18.4601 16.0557 17.9443C15.6043 17.493 15.3261 16.9011 15.2637 16.2715L15.25 16V13C15.25 12.2707 15.5399 11.5714 16.0557 11.0557C16.5714 10.5399 17.2707 10.25 18 10.25H20.2148C20.1394 9.42375 19.9407 8.61195 19.6221 7.84277C19.2075 6.84186 18.6001 5.93209 17.834 5.16602C17.0679 4.39995 16.1581 3.79253 15.1572 3.37793C14.1563 2.96333 13.0834 2.75 12 2.75C10.9166 2.75 9.84371 2.96333 8.84277 3.37793C7.84186 3.79253 6.93209 4.39995 6.16602 5.16602C5.39995 5.93209 4.79253 6.84186 4.37793 7.84277C4.05933 8.61195 3.86059 9.42375 3.78516 10.25H6C6.72935 10.25 7.42861 10.5399 7.94434 11.0557C8.46006 11.5714 8.75 12.2707 8.75 13V16ZM16.75 16C16.75 16.3315 16.8818 16.6494 17.1162 16.8838C17.3506 17.1182 17.6685 17.25 18 17.25H19C19.3315 17.25 19.6494 17.1182 19.8838 16.8838C20.1182 16.6494 20.25 16.3315 20.25 16V11.75H18C17.6685 11.75 17.3506 11.8818 17.1162 12.1162C16.8818 12.3506 16.75 12.6685 16.75 13V16Z"/>
</svg>

<svg xmlns="http://www.w3.org/2000/svg" viewBox="0 0 24 24" fill="currentColor" data-slot="icon">
  <path d="M7.25 13A1.25 1.25 0 0 0 6 11.75H3.75V16A1.25 1.25 0 0 0 5 17.25h1a1.25 1.25 0 0 0 1.244-1.126L7.25 16v-3Zm1.5 3A2.75 2.75 0 0 1 6 18.75H5A2.75 2.75 0 0 1 2.25 16v-5a9.751 9.751 0 0 1 18.758-3.731A9.751 9.751 0 0 1 21.75 11v7A4.75 4.75 0 0 1 17 22.75h-5a.75.75 0 0 1 0-1.5h5a3.25 3.25 0 0 0 3.217-2.787c-.375.185-.79.287-1.217.287h-1a2.75 2.75 0 0 1-2.736-2.479L15.25 16v-3A2.75 2.75 0 0 1 18 10.25h2.215a8.248 8.248 0 0 0-16.43 0H6A2.75 2.75 0 0 1 8.75 13v3Zm8 0A1.25 1.25 0 0 0 18 17.25h1A1.25 1.25 0 0 0 20.25 16v-4.25H18A1.25 1.25 0 0 0 16.75 13v3Z"/>
</svg>
